img/svg/16/net/icebrowser.svg

<svg xmlns="http://www.w3.org/2000/svg" viewBox="0 0 16 16" enable-background="new 0 0 16 16"><g fill="#ccc"><path d="M4.014 8.856v-2.679l2.328-1.344c-.411-.358-.708-.844-.822-1.397l-3.127 1.805v3.568c.236-.073.487-.112.746-.112.308 0 .602.058.875.159zM12.041 6.177v2.659c.258-.089.533-.139.82-.139.28 0 .549.047.801.132v-3.588l-3.177-1.834c-.108.555-.398 1.044-.805 1.406l2.361 1.364zM8.028 13.129l-2.409-1.391c-.113.553-.41 1.04-.82 1.398l3.229 1.864 3.195-1.845c-.415-.354-.715-.838-.835-1.389l-2.36 1.363zM8 4.848c1.061 0 1.924-.863 1.924-1.924s-.863-1.924-1.924-1.924-1.924.863-1.924 1.924.863 1.924 1.924 1.924zm0-3.038c.614 0 1.114.5 1.114 1.114s-.5 1.114-1.114 1.114-1.114-.5-1.114-1.114.5-1.114 1.114-1.114zM3.139 9.305c-1.061 0-1.924.863-1.924 1.924s.863 1.924 1.924 1.924 1.924-.863 1.924-1.924-.863-1.924-1.924-1.924zm0 3.038c-.614 0-1.114-.5-1.114-1.114s.5-1.114 1.114-1.114c.614 0 1.114.5 1.114 1.114s-.5 1.114-1.114 1.114zM12.861 9.305c-1.061 0-1.924.863-1.924 1.924s.863 1.924 1.924 1.924 1.924-.863 1.924-1.924-.863-1.924-1.924-1.924zm0 3.038c-.614 0-1.114-.5-1.114-1.114s.5-1.114 1.114-1.114c.614 0 1.114.5 1.114 1.114s-.5 1.114-1.114 1.114z"/></g></svg>

<svg xmlns="http://www.w3.org/2000/svg" viewBox="0 0 16 16"><path fill="#ccc" d="M4.014 8.856V6.177l2.328-1.344a2.534 2.534 0 0 1-.822-1.397L2.393 5.241v3.568a2.523 2.523 0 0 1 1.621.047zm8.027-2.679v2.659a2.507 2.507 0 0 1 1.621-.007V5.241l-3.177-1.834a2.529 2.529 0 0 1-.805 1.406l2.361 1.364zm-4.013 6.952-2.409-1.391a2.534 2.534 0 0 1-.82 1.398L8.028 15l3.195-1.845a2.537 2.537 0 0 1-.835-1.389l-2.36 1.363zM8 4.848c1.061 0 1.924-.863 1.924-1.924S9.061 1 8 1s-1.924.863-1.924 1.924S6.939 4.848 8 4.848zM8 1.81c.614 0 1.114.5 1.114 1.114S8.614 4.038 8 4.038s-1.114-.5-1.114-1.114S7.386 1.81 8 1.81zM3.139 9.305c-1.061 0-1.924.863-1.924 1.924s.863 1.924 1.924 1.924 1.924-.863 1.924-1.924S4.2 9.305 3.139 9.305zm0 3.038c-.614 0-1.114-.5-1.114-1.114s.5-1.114 1.114-1.114c.614 0 1.114.5 1.114 1.114s-.5 1.114-1.114 1.114zm9.722-3.038c-1.061 0-1.924.863-1.924 1.924s.863 1.924 1.924 1.924 1.924-.863 1.924-1.924-.863-1.924-1.924-1.924zm0 3.038c-.614 0-1.114-.5-1.114-1.114s.5-1.114 1.114-1.114c.614 0 1.114.5 1.114 1.114s-.5 1.114-1.114 1.114z"/></svg>
